assets/images/hero-link.svg

<svg fill="none" height="60" viewBox="0 0 135 60" width="135" xmlns="http://www.w3.org/2000/svg"><path d="m63.3654 1.84938c18.4297-2.43038 35.5074-1.473007 48.2136 2.0215 6.354 1.74756 11.589 4.12373 15.354 7.00582 3.762 2.8804 6.026 6.2417 6.518 9.9727.492 3.7309-.823 7.5641-3.71 11.3214-2.889 3.7595-7.329 7.4118-13.013 10.7468-11.366 6.6689-27.6114 12.0207-46.0411 14.4511s-35.5074 1.473-48.2133-2.0215c-6.3539-1.7476-11.5898-4.1237-15.35438-7.0058-3.76238-2.8804-6.02598-6.2417-6.517991-9.9727-.492013-3.731.822821-7.5641 3.709861-11.3215 2.88872-3.7594 7.32961-7.4117 13.01331-10.7467 11.3656-6.66889 27.6113-12.02074 46.041-14.45112z" stroke="#a7a47f"/></svg>

<svg width="135" height="60" viewBox="0 0 135 60" fill="none" xmlns="http://www.w3.org/2000/svg">
<path d="M63.3654 1.84938C81.7951 -0.581 98.8728 0.376373 111.579 3.87088C117.933 5.61844 123.168 7.99461 126.933 10.8767C130.695 13.7571 132.959 17.1184 133.451 20.8494C133.943 24.5803 132.628 28.4135 129.741 32.1708C126.852 35.9303 122.412 39.5826 116.728 42.9176C105.362 49.5865 89.1166 54.9383 70.6869 57.3687C52.2572 59.7991 35.1795 58.8417 22.4736 55.3472C16.1197 53.5996 10.8838 51.2235 7.11922 48.3414C3.35684 45.461 1.09324 42.0997 0.601229 38.3687C0.109216 34.6377 1.42405 30.8046 4.31109 27.0472C7.19981 23.2878 11.6407 19.6355 17.3244 16.3005C28.69 9.63161 44.9357 4.27976 63.3654 1.84938Z" stroke="#A7A47F"/>
</svg>
